remix/Business/inbox-unarchive-line.svg

<svg viewBox="0 0 24 24" fill="currentColor" xmlns="http://www.w3.org/2000/svg"><path d="M20 3L22 7V20C22 20.5523 21.5523 21 21 21H3C2.44772 21 2 20.5523 2 20V7.00353L4 3H20ZM20 9H4V19H20V9ZM12 10L16 14H13V18H11V14H8L12 10ZM18.764 5H5.236L4.237 7H19.764L18.764 5Z"/></svg>

<svg viewBox="0 0 24 24" xmlns="http://www.w3.org/2000/svg"><path fill="none" d="M0 0h24v24H0Z"/><path d="M20 3l2 4v13 0c0 .55-.45 1-1 1H3v0c-.56 0-1-.45-1-1V7.004L4 3h16Zm0 6H4v10h16V9Zm-8 1l4 4h-3v4h-2v-4H8l4-4Zm6.76-5H5.23l-1 2h15.52l-1-2Z"/></svg>
